X: 103
M: 2/4
L: 1/8
K: G
e2de | d2d2 | A>Bc>d | B3A |\
d3B/d/ | c2A>c | B>AG>B | A2DB/c/ |\
d2B>d | c2A>c | B>AG>B | A3(3(d/e/f/) |\
g3e | d2g2 | B2cA | G3 :|
|: e |\
d>ef>g | a>gf>e | d2e^c | d3e |\
d>ef>g | a>gf>e | d2e^c | d3e |\
d>ef>g | a2=c2 | d>cB>A | B4 |
e3g | d3g | B>AG>B | A2D2 |\
e3g | d3g | B>AG>B | A3g |\
e3g | d2g2 | B2cA | G3 :|

